src/assets/metronic/worbby/global/img/icon-worbbior-inverse.svg

<?xml version="1.0" encoding="UTF-8"?>
<svg width="90px" height="90px" viewBox="0 0 90 90" version="1.1" xmlns="http://www.w3.org/2000/svg" xmlns:xlink="http://www.w3.org/1999/xlink">
    <!-- Generator: Sketch 42 (36781) - http://www.bohemiancoding.com/sketch -->
    <title>icon-worbbior-inverse</title>
    <desc>Created with Sketch.</desc>
    <defs>
        <polygon id="path-1" points="3.2260159 4.57315028 3.2260159 0.337611816 0.187598786 0.337611816 0.187598786 4.57315028"></polygon>
        <linearGradient x1="0%" y1="49.9979293%" x2="99.9874969%" y2="49.9979293%" id="linearGradient-3">
            <stop stop-color="#FFB247" offset="0%"></stop>
            <stop stop-color="#FFCB33" offset="100%"></stop>
        </linearGradient>
    </defs>
    <g id="Desktop" stroke="none" stroke-width="1" fill="none" fill-rule="evenodd">
        <g id="Desktop-About-Worbby" transform="translate(-805.000000, -1264.000000)">
            <g id="icon-worbbior-inverse" transform="translate(805.000000, 1264.000000)">
                <circle id="Oval" fill="#FFFFFF" cx="60" cy="60" r="30"></circle>
                <path d="M54.3328668,70.5232279 C54.2931498,70.6672336 53.1214981,74.1953734 45.0192285,74.1953734 C36.8375248,74.1953734 35.5467221,70.2172157 35.4474296,69.9112036 L32.7268145,61.8828853 C33.7594567,60.4068268 34.7523819,58.3727461 35.228986,55.7086405 C37.83045,56.9866912 41.0078107,57.8327247 44.9000774,57.8327247 C48.8717782,57.8327247 52.0888559,56.9686905 54.7300369,55.6366377 C55.206641,58.3367447 56.2194247,60.4068268 57.2520669,61.900886 L54.3328668,70.5232279 Z M28.8742648,10.8508622 C31.0587002,7.77274013 35.0105425,7.17871658 41.0872447,7.17871658 L44.3638978,7.1967173 C53.5583852,7.1967173 59.3769268,6.18867733 62.3358439,5.46864879 C63.2691936,7.50272943 64.1826848,11.5888914 60.5882956,17.0791091 C59.7740969,18.1231505 55.365509,19.7612154 48.5540422,19.9052211 C43.7880012,20.0132254 39.6177154,19.3291983 37.393563,18.0691483 C36.7580908,17.7091341 35.9836092,17.6011298 35.268703,17.7631362 C34.5537969,17.9251426 33.9183248,18.3571597 33.5608717,18.9511833 C33.5410132,18.9871847 31.8530403,21.4532825 28.1196416,22.2093125 C27.4444525,18.8971812 26.9479899,13.5509692 28.8742648,10.8508622 Z M44.9397945,52.8645278 C34.1764853,52.8645278 30.7211056,44.2781874 29.7281804,40.5880411 C28.6359627,36.5378805 28.5168117,30.4356386 28.5565287,27.1955101 C32.508371,26.6014866 35.189269,24.7474131 36.7183738,23.2893553 C39.8361589,24.4234002 44.0660203,24.9994231 48.6930517,24.8734181 C52.803762,24.7834145 57.490369,24.1353888 60.9656071,22.7133324 C61.0847582,23.4513617 61.2237677,24.2073917 61.3032017,24.9634216 C61.3032017,25.0534252 61.7003718,34.8458134 60.171267,40.5880411 C59.1584833,44.2601867 55.6832451,52.8645278 44.9397945,52.8645278 Z M48.0315585,42.5593649 C47.2975093,42.8529846 46.1833507,43.03125 45,43.03125 C43.8166493,43.03125 42.7024907,42.8529846 41.9684415,42.5593649 C41.8068257,42.4947186 41.681409,42.4316278 41.5945591,42.3790071 C41.4176836,41.3128937 40.4912726,40.5 39.375,40.5 C38.1323593,40.5 37.125,41.5073593 37.125,42.75 C37.125,49.125 52.875,49.125 52.875,42.75 C52.875,41.5073593 51.8676407,40.5 50.625,40.5 C49.5087274,40.5 48.5823164,41.3128937 48.4054409,42.3790071 C48.318591,42.4316278 48.1931743,42.4947186 48.0315585,42.5593649 Z M38.25,36 C40.113961,36 41.625,34.488961 41.625,32.625 C41.625,30.761039 40.113961,29.25 38.25,29.25 C36.386039,29.25 34.875,30.761039 34.875,32.625 C34.875,34.488961 36.386039,36 38.25,36 Z M51.75,36 C53.613961,36 55.125,34.488961 55.125,32.625 C55.125,30.761039 53.613961,29.25 51.75,29.25 C49.886039,29.25 48.375,30.761039 48.375,32.625 C48.375,34.488961 49.886039,36 51.75,36 Z M63.5273542,61.0188511 C63.1699011,60.7668411 59.9528234,58.2467412 59.9528234,52.4145099 C59.9528234,52.2165021 59.8733894,52.0544957 59.8336724,51.8744885 C63.4082031,48.1843422 64.9373079,43.7561667 65.4734875,41.7580875 C67.2011774,35.3498334 66.7841488,25.1974309 66.7444318,24.6214081 C66.5259883,22.6053282 66.1883937,20.6792518 65.7316481,18.9151819 C72.1459449,8.42076582 66.0096672,1.23848108 65.7515066,0.932468952 C64.9968835,0.0684346978 63.6663637,-0.237577434 62.5542875,0.194439693 C62.494712,0.212440407 56.9740479,2.22852033 44.3638978,2.22852033 L41.0872447,2.21051962 C34.990684,2.21051962 28.1593586,2.67853817 24.2472333,8.16875583 C20.5138346,13.4249642 22.420251,22.3893196 23.0755816,24.9454209 C23.0160061,26.385478 22.7578455,35.7278484 24.3663844,41.7580875 C24.9224225,43.7921681 26.4912443,48.2923465 30.1650675,52.0184942 C30.145209,52.1444992 30.0856335,52.2705042 30.0856335,52.4145099 C30.0856335,58.1567376 26.9678484,60.6948382 26.5706783,61.0008503 C0.75462315,74.8253984 0,86.2558516 0,87.5159015 C0,88.865955 1.19151024,89.9459979 2.68089803,89.9819993 L2.74047355,89.9819993 C4.21000284,89.9819993 5.42137158,88.9019565 5.48094709,87.5699037 C5.48094709,87.4799001 6.21571174,78.0115247 28.3182266,65.8430423 L30.1253505,71.1892543 C30.2047845,71.5132671 32.2303519,79.1815711 44.99937,79.1815711 C56.7754628,79.1815711 59.2379173,73.025327 59.6152289,71.8012785 L61.6606548,65.8250416 C83.5645847,77.8495183 84.4979343,87.2818922 84.5177928,87.5519029 C84.5575098,88.9019565 85.7688786,90 87.2582664,90 C88.7675127,90 89.9987399,88.8839558 89.9987399,87.5159015 C90.0384569,86.2558516 89.3036923,74.8974013 63.5273542,61.0188511 L63.5273542,61.0188511 Z" id="Combined-Shape" fill="#FFB247"></path>
                <g id="Group-56" transform="translate(43.200000, 82.875000)">
                    <path d="M12.1175848,4.15051108 L11.1620971,1.63240607 C11.1071501,1.48078505 11.1805356,1.39283783 11.3398451,1.39283783 L11.5356629,1.39283783 C11.6643643,1.39283783 11.7499193,1.43962575 11.7930656,1.56240008 L12.5033202,3.51377316 L13.1280196,1.65597593 C13.1648968,1.53918201 13.2504519,1.47480464 13.3728841,1.47480464 L13.5078546,1.47480464 C13.636556,1.47480464 13.7158419,1.53918201 13.7527191,1.65597593 L14.3836877,3.51377316 L15.0876731,1.56240008 C15.1308194,1.43962575 15.2163745,1.39283783 15.3450758,1.39283783 L15.5408937,1.39283783 C15.7064722,1.39283783 15.7739575,1.48078505 15.7186417,1.63240607 L14.769423,4.15051108 C14.7203764,4.27328541 14.6407216,4.31972155 14.5120203,4.31972155 L14.3099333,4.31972155 C14.1816007,4.31972155 14.1015772,4.26132459 14.0587997,4.14453067 L13.4403694,2.32191233 L12.821939,4.14453067 C12.7850618,4.26132459 12.6995068,4.31972155 12.5708054,4.31972155 L12.3687185,4.31972155 C12.2400171,4.31972155 12.1603624,4.267305 12.1175848,4.15051108" id="Fill-43" fill="#1E2225"></path>
                    <path d="M18.548191,2.85930507 C18.548191,2.30418217 18.1071399,1.85459595 17.5499257,1.85459595 C17.0048809,1.85459595 16.5579295,2.30418217 16.5579295,2.85930507 C16.5579295,3.41442797 17.0048809,3.85838557 17.5499257,3.85838557 C18.1071399,3.85838557 18.548191,3.41442797 18.548191,2.85930507 M15.93323,2.85332466 C15.93323,2.01219738 16.655654,1.32867153 17.5499257,1.32867153 C18.4500977,1.32867153 19.1787908,2.01817779 19.1787908,2.85332466 C19.1787908,3.70078414 18.4500977,4.38430999 17.5499257,4.38430999 C16.655654,4.38430999 15.93323,3.70641276 15.93323,2.85332466" id="Fill-45" fill="#1E2225"></path>
                    <path d="M19.7180827,4.10963321 L19.7180827,1.60313724 C19.7180827,1.46910566 19.8036378,1.39276747 19.9445086,1.39276747 L20.128157,1.39276747 C20.2690278,1.39276747 20.3486825,1.46910566 20.3486825,1.60313724 L20.3486825,2.04744663 C20.453045,1.57991917 20.8019031,1.32874189 21.1695686,1.32874189 L21.3041703,1.33437051 C21.4328717,1.35195996 21.4513103,1.45116443 21.4513103,1.56831013 L21.4513103,1.7375206 C21.4513103,1.883513 21.3900942,1.94190996 21.2857317,1.91869189 C21.2307847,1.90708285 21.175469,1.90110244 21.120522,1.90110244 C20.8999964,1.90110244 20.3486825,2.00628733 20.3486825,3.20412856 L20.3486825,4.10963321 C20.3486825,4.24401657 20.2690278,4.32000298 20.128157,4.32000298 L19.9445086,4.32000298 C19.8036378,4.32000298 19.7180827,4.24401657 19.7180827,4.10963321" id="Fill-47" fill="#1E2225"></path>
                    <path d="M24.4521541,2.85346538 C24.4521541,2.3103033 24.0970268,1.84875625 23.4723274,1.84875625 C22.8719668,1.84875625 22.4556235,2.27512441 22.4493543,2.85346538 C22.4556235,3.43180634 22.8719668,3.8581745 23.4723274,3.8581745 C24.0970268,3.8581745 24.4521541,3.40260786 24.4521541,2.85346538 M22.4618926,3.8581745 L22.4618926,4.10970357 C22.4618926,4.24408693 22.3822379,4.31972155 22.2409983,4.31972155 L22.0573499,4.31972155 C21.9168478,4.31972155 21.830924,4.24408693 21.830924,4.10970357 L21.830924,0.306161887 C21.830924,0.171778524 21.9168478,0.0961439088 22.0573499,0.0961439088 L22.2409983,0.0961439088 C22.3822379,0.0961439088 22.4618926,0.171778524 22.4618926,0.306161887 L22.4618926,1.85473666 C22.7495346,1.46284382 23.1537085,1.32881225 23.5641516,1.32881225 C24.476493,1.32881225 25.0827539,2.01198631 25.0827539,2.85346538 C25.0827539,3.69494445 24.476493,4.38445071 23.5641516,4.38445071 C23.1537085,4.38445071 22.7495346,4.24971555 22.4618926,3.8581745" id="Fill-49" fill="#1E2225"></path>
                    <path d="M28.2554823,2.85346538 C28.2554823,2.3103033 27.900355,1.84875625 27.2756556,1.84875625 C26.675295,1.84875625 26.2589516,2.27512441 26.2526825,2.85346538 C26.2589516,3.43180634 26.675295,3.8581745 27.2756556,3.8581745 C27.900355,3.8581745 28.2554823,3.40260786 28.2554823,2.85346538 M26.2652208,3.8581745 L26.2652208,4.10970357 C26.2652208,4.24408693 26.185566,4.31972155 26.0443264,4.31972155 L25.8606781,4.31972155 C25.720176,4.31972155 25.6342522,4.24408693 25.6342522,4.10970357 L25.6342522,0.306161887 C25.6342522,0.171778524 25.720176,0.0961439088 25.8606781,0.0961439088 L26.0443264,0.0961439088 C26.185566,0.0961439088 26.2652208,0.171778524 26.2652208,0.306161887 L26.2652208,1.85473666 C26.5528628,1.46284382 26.9570367,1.32881225 27.3674797,1.32881225 C28.2798212,1.32881225 28.8860821,2.01198631 28.8860821,2.85346538 C28.8860821,3.69494445 28.2798212,4.38445071 27.3674797,4.38445071 C26.9570367,4.38445071 26.5528628,4.24971555 26.2652208,3.8581745" id="Fill-51" fill="#1E2225"></path>
                    <g id="Group-55" transform="translate(28.869819, 1.055367)">
                        <mask id="mask-2" fill="white">
                            <use xlink:href="#path-1"></use>
                        </mask>
                        <g id="Clip-54"></g>
                        <path d="M0.916914257,4.32795341 L1.38857342,3.15368203 L0.212560078,0.582808685 C0.145074835,0.436816288 0.218460427,0.337611816 0.384038975,0.337611816 L0.628903465,0.337611816 C0.75760483,0.337611816 0.837259544,0.390380152 0.880037075,0.501193658 L1.73116244,2.48176521 L2.51517133,0.50717407 C2.55831764,0.390380152 2.65014182,0.337611816 2.77847441,0.337611816 L3.02960802,0.337611816 C3.19518657,0.337611816 3.26857216,0.431187665 3.20108692,0.582808685 L1.49256707,4.40956843 C1.44352042,4.52636235 1.36386571,4.57315028 1.23516434,4.57315028 L1.08839315,4.57315028 C0.923183378,4.57315028 0.855698135,4.47394581 0.916914257,4.32795341" id="Fill-53" fill="#1E2225" mask="url(#mask-2)"></path>
                    </g>
                    <path d="M5.45565554,0.422616799 C5.28262759,0.650018223 5.19150426,0.957185068 5.19150426,1.31088174 L5.19150426,1.31088174 C5.19150426,1.87623667 5.4386364,2.57243487 5.87900671,3.05382619 L5.87900671,3.05382619 C5.55493387,3.48239041 5.11456356,3.77696272 4.82311074,3.77696272 L4.82311074,3.77696272 C4.53201249,3.77696272 4.69404891,3.48239041 3.76756934,3.05382619 L3.76756934,3.05382619 L3.76756934,3.01289394 C3.30450684,2.81418008 3.60198727,2.80753296 3.48604436,2.35063102 L3.48604436,2.35063102 L3.30450684,2.35063102 L3.30450684,2.3866654 C3.30450684,1.98538935 3.08042146,1.54667953 3.08042146,1.14540348 L3.08042146,1.14540348 C3.08042146,0.930246746 3.17615414,0.831239665 3.20451937,0.791356954 L3.20451937,0.791356954 C3.22082939,0.768616811 3.27472334,0.72663501 3.39385734,0.72663501 L3.39385734,0.72663501 C3.58815921,0.72663501 3.6807008,0.801852404 3.72360322,0.858527836 L3.72360322,0.858527836 C3.7987711,0.957534917 3.84628287,1.11811531 3.84628287,1.31088174 L3.84628287,1.31088174 C3.84628287,1.54248135 3.78387935,1.81361381 3.67077297,2.06690401 L3.67077297,2.06690401 C3.78139739,2.33698694 3.93208772,2.59622456 4.08845109,2.81383023 L4.08845109,2.81383023 C4.40862371,2.35797784 4.5873247,1.78842473 4.5873247,1.31088174 L4.5873247,1.31088174 C4.5873247,0.957185068 4.49691051,0.650018223 4.32388256,0.422616799 L4.32388256,0.422616799 C4.17744702,0.229850362 3.90124052,0 3.41761322,0 L3.41761322,0 C3.09389495,0 2.82194323,0.132592522 2.64997898,0.373638031 L2.64997898,0.373638031 C2.51063475,0.569203255 2.43972166,0.828790726 2.43972166,1.14540348 L2.43972166,1.14540348 C2.43972166,1.64883524 2.62125918,2.28311029 2.92157613,2.86490809 L2.92157613,2.86490809 C2.84498999,2.89079686 2.76450363,2.90549049 2.68188987,2.90549049 L2.68188987,2.90549049 C1.99438743,2.90549049 0.841340522,2.63190909 0.841340522,0.799053617 L0.841340522,0.799053617 C0.841340522,0.598240668 0.676822144,0.435911036 0.473656131,0.435911036 L0.473656131,0.435911036 C0.270135551,0.435911036 0.105617174,0.598240668 0.105617174,0.799053617 L0.105617174,0.799053617 C0.105617174,2.54619625 1.09272744,3.63142581 2.68188987,3.63142581 L2.68188987,3.63142581 C2.90916634,3.63142581 3.11977823,3.58104765 3.31159815,3.49358556 L3.31159815,3.49358556 C3.74487715,4.0771326 4.30119037,4.50289803 4.89012362,4.50289803 L4.89012362,4.50289803 C5.47870229,4.50289803 6.03466095,4.0771326 6.46793995,3.49358556 L6.46793995,3.49358556 C6.65975987,3.58104765 6.87072633,3.63142581 7.09800279,3.63142581 L7.09800279,3.63142581 C8.68716523,3.63142581 9.67427549,2.54619625 9.67427549,0.799053617 L9.67427549,0.799053617 C9.67427549,0.598240668 9.50975711,0.435911036 9.30623653,0.435911036 L9.30623653,0.435911036 C9.10307052,0.435911036 8.93819758,0.598240668 8.93819758,0.799053617 L8.93819758,0.799053617 C8.93819758,2.63190909 7.78550524,2.90549049 7.09800279,2.90549049 L7.09800279,2.90549049 C7.01503447,2.90549049 6.93490268,2.89079686 6.85796197,2.86490809 L6.85796197,2.86490809 C6.6328129,2.7882913 6.43744732,2.60986864 6.28392048,2.3866654 L6.28392048,2.3866654 C6.06054423,2.06270583 5.92758218,1.64498691 5.92758218,1.31088174 L5.92758218,1.31088174 C5.92758218,1.11811531 5.96906634,0.957534917 6.04458878,0.858527836 L6.04458878,0.858527836 C6.08749121,0.801852404 6.16726844,0.72663501 6.36192488,0.72663501 L6.36192488,0.72663501 C6.48141344,0.72663501 6.51119694,0.768616811 6.52750695,0.791356954 L6.52750695,0.791356954 C6.55587219,0.831239665 6.60373853,0.930246746 6.60373853,1.14540348 L6.60373853,1.14540348 C6.60373853,1.437177 6.53637109,1.74819217 6.42503753,2.05081099 L6.42503753,2.05081099 C6.56367263,2.31634588 6.76400212,2.53779989 6.98489641,2.59762395 L6.98489641,2.59762395 C7.20827265,2.09384234 7.34017101,1.57256831 7.34017101,1.14540348 L7.34017101,1.14540348 C7.34017101,0.828790726 7.26925791,0.569203255 7.12991368,0.373638031 L7.12991368,0.373638031 C6.95794943,0.132592522 6.68528859,0 6.36192488,0 L6.36192488,0 C5.87865214,0 5.60209108,0.229850362 5.45565554,0.422616799" id="Fill-41" fill="url(#linearGradient-3)"></path>
                </g>
            </g>
        </g>
    </g>
</svg>

<svg xmlns="http://www.w3.org/2000/svg" width="90" height="90" xmlns:xlink="http://www.w3.org/1999/xlink"><defs><path id="a" d="M3.226 4.5732V.3376H.1876v4.2356z"/><linearGradient id="c" x1="0%" x2="99.9875%" y1="49.9979%" y2="49.9979%"><stop stop-color="#FFB247" offset="0%"/><stop stop-color="#FFCB33" offset="100%"/></linearGradient></defs><g fill="none" fill-rule="evenodd"><circle cx="60" cy="60" r="30" fill="#FFF"/><path fill="#FFB247" d="M54.333 70.5232c-.04.144-1.2115 3.6722-9.3138 3.6722-8.1817 0-9.4725-3.9782-9.5718-4.2842l-2.7206-8.0283c1.0327-1.4762 2.0256-3.5103 2.5022-6.1744 2.6014 1.278 5.7788 2.124 9.671 2.124 3.9718 0 7.189-.864 9.83-2.196.4766 2.7 1.4894 4.7702 2.522 6.2643l-2.919 8.6222zM28.8742 10.851c2.1844-3.0783 6.1362-3.6723 12.213-3.6723l3.2766.018c9.1944 0 15.013-1.008 17.9718-1.728.9334 2.034 1.847 6.1202-1.7475 11.6104-.8142 1.0442-5.2228 2.6822-12.0343 2.8262-4.766.108-8.9363-.576-11.1604-1.836-.6355-.36-1.41-.468-2.125-.306-.7148.162-1.3503.594-1.7077 1.188-.02.036-1.708 2.502-5.4414 3.258-.675-3.312-1.1716-8.6582.7547-11.3583zm16.0655 42.0135c-10.7633 0-14.2187-8.5863-15.2116-12.2765-1.0922-4.05-1.2114-10.1524-1.1717-13.3925 3.952-.594 6.6328-2.448 8.162-3.906 3.1177 1.134 7.3475 1.71 11.9746 1.584 4.1108-.09 8.7974-.738 12.2726-2.1602.1192.738.2582 1.494.3376 2.25 0 .09.3972 9.8825-1.132 15.6247-1.0127 3.6722-4.488 12.2765-15.2314 12.2765zm3.0918-10.305c-.734.2935-1.8482.4718-3.0316.4718s-2.2975-.1783-3.0316-.472c-.1616-.0646-.287-.1277-.3738-.1803-.177-1.066-1.1033-1.879-2.2196-1.879-1.2426 0-2.25 1.0074-2.25 2.25 0 6.375 15.75 6.375 15.75 0 0-1.2426-1.0074-2.25-2.25-2.25-1.1163 0-2.0427.813-2.2196 1.879-.0868.0526-.2122.1157-.3738.1804zM38.25 36c1.864 0 3.375-1.511 3.375-3.375s-1.511-3.375-3.375-3.375-3.375 1.511-3.375 3.375S36.386 36 38.25 36zm13.5 0c1.864 0 3.375-1.511 3.375-3.375s-1.511-3.375-3.375-3.375-3.375 1.511-3.375 3.375S49.886 36 51.75 36zm11.7774 25.019c-.3575-.2522-3.5746-2.7723-3.5746-8.6045 0-.198-.0794-.36-.119-.54 3.5744-3.6902 5.1035-8.1183 5.6397-10.1164 1.7277-6.4082 1.3106-16.5606 1.271-17.1366-.2185-2.016-.556-3.942-1.013-5.7062 6.4144-10.4944.2782-17.6767.02-17.9827-.7546-.864-2.085-1.17-3.1972-.738-.0596.018-5.5803 2.034-18.1904 2.034l-3.2768-.018c-6.0965 0-12.9278.468-16.84 5.9583-3.7334 5.2562-1.827 14.2205-1.1716 16.7766-.0596 1.44-.3178 10.7824 1.2908 16.8127.556 2.0342 2.1248 6.5343 5.7987 10.2605-.0198.126-.0794.252-.0794.396 0 5.7422-3.1178 8.2803-3.515 8.5864C.7547 74.8253 0 86.256 0 87.516c0 1.35 1.1915 2.43 2.681 2.466h.0595c1.4695 0 2.681-1.08 2.7404-2.412 0-.09.7347-9.5585 22.8372-21.727l1.8072 5.3463c.0794.324 2.105 7.9923 14.874 7.9923 11.776 0 14.2385-6.1563 14.6158-7.3803l2.0455-5.9763c21.904 12.0245 22.8372 21.457 22.857 21.727.0398 1.35 1.2512 2.448 2.7406 2.448 1.5092 0 2.7404-1.116 2.7404-2.484.0398-1.26-.695-12.6186-26.4713-26.497z"/><path fill="#1E2225" d="M55.3176 87.0255l-.9555-2.518c-.0548-.1517.0185-.2397.1778-.2397h.196c.1286 0 .214.0468.2573.1696l.7103 1.9514.6247-1.8578c.037-.1168.1225-.1812.245-.1812h.135c.1286 0 .2078.0644.2447.1812l.631 1.8578.704-1.9514c.043-.1228.1287-.1696.2574-.1696h.196c.1655 0 .233.088.1776.2396l-.9492 2.518c-.049.123-.1287.1693-.2574.1693h-.202c-.1284 0-.2084-.0584-.2512-.1752l-.6184-1.8226-.6185 1.8225c-.037.1168-.1225.1752-.2512.1752h-.202c-.1288 0-.2084-.0524-.2512-.1692M61.7482 85.7343c0-.555-.441-1.0047-.9983-1.0047-.545 0-.992.4496-.992 1.0047 0 .555.447.999.992.999.557 0 .9982-.444.9982-.999m-2.615-.006c0-.841.7225-1.5246 1.6167-1.5246.9 0 1.6288.6895 1.6288 1.5246 0 .8475-.7287 1.531-1.629 1.531-.894 0-1.6166-.678-1.6166-1.531M62.918 86.9846V84.478c0-.134.0856-.2102.2265-.2102h.1837c.1408 0 .2205.0763.2205.2103v.4444c.1043-.4675.4532-.7187.821-.7187l.1345.0057c.1287.0176.147.1168.147.234v.169c0 .146-.061.2045-.1655.1813-.055-.0116-.1102-.0176-.1652-.0176-.2205 0-.7718.1053-.7718 1.303v.9056c0 .1344-.0797.2104-.2205.2104h-.1837c-.141 0-.2264-.076-.2264-.2104M67.6522 85.7285c0-.5432-.3552-1.0047-.98-1.0047-.6002 0-1.0166.4263-1.0228 1.0047.0062.5783.4226 1.0047 1.023 1.0047.6246 0 .9798-.4556.9798-1.0047m-1.9903 1.0047v.2515c0 .1344-.0798.21-.221.21h-.1837c-.1405 0-.2264-.0756-.2264-.21v-3.8035c0-.1344.0858-.21.2263-.21h.1837c.1412 0 .221.0756.221.21v1.5485c.2875-.392.6917-.526 1.1022-.526.9123 0 1.5186.6833 1.5186 1.5248 0 .8414-.6063 1.531-1.5186 1.531-.4105 0-.8147-.1348-1.1023-.5263M71.4555 85.7285c0-.5432-.355-1.0047-.9798-1.0047-.6004 0-1.0167.4263-1.023 1.0047.0063.5783.4226 1.0047 1.023 1.0047.6247 0 .9798-.4556.9798-1.0047m-1.9903 1.0047v.2515c0 .1344-.0796.21-.221.21h-.1835c-.1405 0-.2264-.0756-.2264-.21v-3.8035c0-.1344.086-.21.2264-.21h.1836c.1413 0 .221.0756.221.21v1.5485c.2876-.392.6917-.526 1.1022-.526.9123 0 1.5186.6833 1.5186 1.5248 0 .8414-.6062 1.531-1.5185 1.531-.4105 0-.8146-.1348-1.1023-.5263"/><g transform="translate(72.07 83.93)"><mask id="b" fill="#fff"><use xlink:href="#a"/></mask><path fill="#1E2225" d="M.917 4.328l.4716-1.1743L.2126.5827C.145.4368.2186.3378.384.3378h.245c.1286 0 .2083.0527.251.1635l.8512 1.9806.784-1.9746c.043-.1168.135-.1696.2633-.1696h.251c.1657 0 .239.0936.1716.2452L1.4927 4.4096c-.049.1168-.1287.1636-.2574.1636h-.1468c-.1652 0-.2327-.0993-.1715-.2452" mask="url(#b)"/></g><path fill="url(#c)" d="M5.4557.4226c-.173.2274-.2642.5346-.2642.8883 0 .5652.247 1.2614.6875 1.7428-.324.4286-.7644.7232-1.056.7232-.291 0-.129-.2946-1.0554-.7232v-.041c-.463-.1986-.1656-.2053-.2816-.6622h-.1815v.036c0-.4012-.224-.84-.224-1.2412 0-.2152.0957-.3142.124-.354.0163-.0228.0702-.0648.1894-.0648.1942 0 .2867.0753.3296.132.0752.099.1227.2595.1227.4523 0 .2315-.0624.5026-.1755.756.1106.27.2613.5292.4177.7468.32-.4558.4988-1.0254.4988-1.503 0-.3536-.0904-.6608-.2634-.8882C4.1773.23 3.901 0 3.4175 0 3.094 0 2.822.1326 2.65.3736c-.1394.1956-.2103.4552-.2103.7718 0 .5034.1816 1.1377.482 1.7195-.0767.0258-.1572.0405-.2398.0405C1.9943 2.9055.8412 2.632.8412.799.8413.5983.6768.436.4737.436.27.436.1057.598.1057.799c0 1.7472.987 2.8324 2.5762 2.8324.2272 0 .4378-.0504.6296-.1378.4333.5835.9896 1.0093 1.5785 1.0093.5887 0 1.1447-.426 1.578-1.0094.1918.0874.4027.1378.63.1378 1.5892 0 2.5763-1.0852 2.5763-2.8323 0-.2008-.1645-.363-.368-.363-.2032 0-.368.1622-.368.363 0 1.833-1.1528 2.1065-1.8403 2.1065-.083 0-.163-.0147-.24-.0406-.2252-.0767-.4206-.255-.574-.4783-.2235-.324-.3564-.7417-.3564-1.0758 0-.193.0415-.3535.117-.4525.043-.0566.1227-.132.3173-.132.1194 0 .1492.042.1655.065.0284.0397.0762.1387.0762.354 0 .2917-.0673.6027-.1787.9053.1387.2655.339.487.56.5468.2233-.5038.3552-1.025.3552-1.4522 0-.3166-.071-.5762-.2103-.7718C6.958.1326 6.6852 0 6.362 0c-.4833 0-.76.23-.9063.4226" transform="translate(43.2 82.875)"/></g></svg>
